Quickit/src/img/zone--tab.svg

<svg width="628" height="118" viewBox="0 0 628 118" fill="none" preserveAspectRatio="none"  xmlns="http://www.w3.org/2000/svg">
<path opacity="0.07" d="M617.331 57.1653L624.083 54.9978C626.019 54.3763 628 55.8206 628 57.8543V115C628 116.657 626.657 118 625 118H3C1.3432 118 0 116.657 0 115V5.0551C0 3.09852 1.84277 1.66556 3.73907 2.14755L9.5813 3.63252C10.1584 3.77922 10.7662 3.75083 11.3271 3.55098L20.1509 0.407331C20.8843 0.146063 21.6905 0.180099 22.3992 0.502248L31.6313 4.69874C31.9557 4.84621 32.3038 4.93469 32.6592 4.96005L43.0895 5.70407C43.2365 5.71456 43.3841 5.7142 43.5311 5.70299L53.5563 4.93854C53.7032 4.92733 53.8508 4.92697 53.9978 4.93746L64.6105 5.6945C64.8464 5.71132 65.0833 5.70021 65.3165 5.66139L75.6445 3.94236C75.9817 3.88624 76.326 3.88816 76.6625 3.94804L86.6207 5.71982L96.8696 7.73439C97.2517 7.8095 97.6448 7.8095 98.0269 7.73439L108.276 5.71982L118.832 3.90416C119.013 3.87316 119.19 3.82573 119.361 3.76248L127.679 0.696953C128.823 0.275458 130.108 0.587784 130.93 1.48719L139.779 11.162C140.182 11.603 140.708 11.9136 141.289 12.0537L151.316 14.4715C151.496 14.5149 151.671 14.5747 151.84 14.6503L162.045 19.2238C162.29 19.3336 162.548 19.41 162.814 19.451L171.985 20.8675C172.569 20.9576 173.166 20.8734 173.703 20.6253L182.957 16.3436C183.67 16.0139 184.483 15.9767 185.223 16.24L193.747 19.274C194.263 19.4575 194.719 19.7787 195.065 20.2027L204.207 31.3973C205.094 32.4838 206.616 32.8104 207.871 32.1838L214.851 28.6981C216.067 28.0911 217.539 28.377 218.439 29.395L226.879 38.941C227.207 39.3128 227.623 39.5973 228.089 39.7689L236.661 42.9282C237.624 43.2831 238.701 43.1211 239.517 42.4988L246.344 37.2929C247.64 36.3052 249.486 36.5316 250.505 37.8029L258.032 47.1991C259.05 48.4699 260.896 48.6966 262.191 47.71L269.293 42.3003C270.156 41.6433 271.306 41.5029 272.301 41.9329L281.156 45.7593L292.345 48.9518L301.38 51.2114C302.071 51.3843 302.801 51.3056 303.439 50.9895L312.861 46.3236C313.589 45.963 314.432 45.9131 315.198 46.1856L324.241 49.4034C324.391 49.457 324.546 49.4984 324.703 49.5274L334.751 51.379C335.11 51.4452 335.478 51.4452 335.838 51.379L345.365 49.6234C345.861 49.5319 346.373 49.5673 346.853 49.7263L355.953 52.7448C356.598 52.9588 357.297 52.9474 357.935 52.7123L368.138 48.9518L379.326 45.7593L388.481 41.7828C389.097 41.5152 389.785 41.4621 390.435 41.6321L400.384 44.2342C400.542 44.2754 400.695 44.3294 400.844 44.3955L411.087 48.9518L421.197 52.8021C421.668 52.9814 422.177 53.0392 422.676 52.9702L433.464 51.4792L443.227 49.1218C443.69 49.0101 444.172 49.0101 444.635 49.1218L454.124 51.4132C454.306 51.4571 454.492 51.4839 454.679 51.4932L464.745 51.9969C465.517 52.0355 466.273 51.7752 466.857 51.27L473.975 45.1159C474.991 44.2375 476.466 44.1412 477.588 44.8801L486.851 50.9842C487.341 51.3071 487.915 51.4792 488.502 51.4792H497.443C497.619 51.4792 497.795 51.4636 497.969 51.4326L508.635 49.5305C508.809 49.4995 508.98 49.4531 509.146 49.392L519.459 45.5912C519.635 45.5261 519.818 45.4777 520.003 45.4468L530.146 43.7586C530.649 43.6749 531.165 43.7207 531.645 43.8915L540.374 46.9977C541.024 47.2292 541.735 47.2292 542.385 46.9977L551.846 43.631L561.436 40.207C562.615 39.7862 563.93 40.141 564.737 41.0972L573.243 51.1736C573.414 51.3764 573.612 51.5556 573.83 51.7065L584.449 59.0445C584.844 59.3177 585.299 59.4919 585.776 59.5525L594.772 60.6958C595.261 60.758 595.758 60.6986 596.219 60.5229L605.396 57.024C605.784 56.8762 606.198 56.8104 606.612 56.8308L616.267 57.3052C616.627 57.3229 616.987 57.2755 617.331 57.1653Z" fill="#F12052"/>
</svg>

<svg xmlns="http://www.w3.org/2000/svg" width="628" height="118" fill="none" preserveAspectRatio="none" xmlns:v="https://vecta.io/nano"><path opacity=".07" d="M617.331 57.165l6.752-2.168c1.936-.621 3.917.823 3.917 2.857V115a3 3 0 0 1-3 3H3a3 3 0 0 1-3-3V5.055a3 3 0 0 1 3.739-2.908l5.842 1.485a3 3 0 0 0 1.746-.082L20.151.407a3 3 0 0 1 2.248.095l9.232 4.196a3 3 0 0 0 1.028.261l10.43.744a3 3 0 0 0 .442-.001l10.025-.764a3 3 0 0 1 .441-.001l10.613.757a3 3 0 0 0 .706-.033l10.328-1.719a3 3 0 0 1 1.018.006l9.958 1.772L96.87 7.734a3 3 0 0 0 1.157 0l10.249-2.015 10.556-1.816a2.97 2.97 0 0 0 .529-.142l8.318-3.066a3 3 0 0 1 3.251.79l8.849 9.675a3 3 0 0 0 1.51.892l10.027 2.418a3.01 3.01 0 0 1 .524.179l10.205 4.574c.245.11.503.186.769.227l9.171 1.416c.584.09 1.181.006 1.718-.242l9.254-4.282a3 3 0 0 1 2.266-.104l8.524 3.034c.516.183.972.505 1.318.929l9.142 11.195a3 3 0 0 0 3.664.786l6.98-3.486a3 3 0 0 1 3.588.697l8.44 9.546a2.99 2.99 0 0 0 1.21.828l8.572 3.159a3 3 0 0 0 2.856-.429l6.827-5.206a3 3 0 0 1 4.161.51l7.527 9.396a3 3 0 0 0 4.159.511l7.102-5.41a3 3 0 0 1 3.008-.367l8.855 3.826 11.189 3.192 9.035 2.26a3 3 0 0 0 2.059-.222l9.422-4.666a3 3 0 0 1 2.337-.138l9.043 3.218c.15.054.305.095.462.124l10.048 1.852a3 3 0 0 0 1.087 0l9.527-1.756a3 3 0 0 1 1.488.103l9.1 3.018a3 3 0 0 0 1.982-.032l10.203-3.761 11.188-3.192 9.155-3.977a3 3 0 0 1 1.954-.151l9.949 2.602c.158.041.311.095.46.161l10.243 4.556 10.11 3.85c.471.179.98.237 1.479.168l10.788-1.491 9.763-2.357a3 3 0 0 1 1.408 0l9.489 2.291c.182.044.368.071.555.08l10.066.504a3 3 0 0 0 2.112-.727l7.118-6.154a3 3 0 0 1 3.613-.236l9.263 6.104a3 3 0 0 0 1.651.495h8.941a3 3 0 0 0 .526-.047l10.666-1.902c.174-.031.345-.077.511-.139l10.313-3.801c.176-.065.359-.114.544-.144l10.143-1.688a3 3 0 0 1 1.499.133l8.729 3.106a3 3 0 0 0 2.011 0l9.461-3.367 9.59-3.424a3 3 0 0 1 3.301.89l8.506 10.076c.171.203.369.382.587.533l10.619 7.338c.395.273.85.447 1.327.508l8.996 1.143a3 3 0 0 0 1.447-.173l9.177-3.499a3 3 0 0 1 1.216-.193l9.655.474c.36.018.72-.03 1.064-.14z" fill="#f12052"/></svg>
